dist/img/svg/ic_tg.svg

<svg width="16" height="14" viewBox="0 0 16 14"  xmlns="http://www.w3.org/2000/svg">
<path d="M6.27852 9.09626L6.01383 12.8192C6.39252 12.8192 6.55653 12.6565 6.75321 12.4611L8.52866 10.7644L12.2076 13.4585C12.8823 13.8346 13.3576 13.6366 13.5396 12.8378L15.9545 1.52245C16.1685 0.525052 15.5944 0.134361 14.9371 0.379043L0.742832 5.81339C-0.225896 6.18941 -0.211228 6.72945 0.578155 6.97413L4.20705 8.10287L12.6363 2.82853C13.0329 2.56585 13.3936 2.71119 13.0969 2.97387L6.27852 9.09626Z" />
</svg>

<svg width="16" height="14" viewBox="0 0 16 14" xmlns="http://www.w3.org/2000/svg"><path d="M6.279 9.096l-.265 3.723c.379 0 .543-.163.74-.358l1.775-1.697 3.679 2.695c.674.376 1.15.178 1.332-.621l2.415-11.316c.214-.997-.36-1.388-1.018-1.143L.743 5.813c-.969.376-.954.916-.165 1.161l3.629 1.129 8.43-5.274c.396-.263.757-.118.46.145L6.279 9.096z"/></svg>
